Dominus_Funeral/symbolic/status/weather-clouds-night-symbolic.svg

<?xml version="1.0" encoding="UTF-8" standalone="no"?>
<svg
   xmlns:dc="http://purl.org/dc/elements/1.1/"
   xmlns:cc="http://creativecommons.org/ns#"
   xmlns:rdf="http://www.w3.org/1999/02/22-rdf-syntax-ns#"
   xmlns:svg="http://www.w3.org/2000/svg"
   xmlns="http://www.w3.org/2000/svg"
   xmlns:sodipodi="http://sodipodi.sourceforge.net/DTD/sodipodi-0.dtd"
   xmlns:inkscape="http://www.inkscape.org/namespaces/inkscape"
   width="24"
   height="24"
   version="1.1"
   id="svg4"
   sodipodi:docname="weather-clouds-night-symbolic.svg"
   inkscape:version="0.92.4 (5da689c313, 2019-01-14)">
  <metadata
     id="metadata10">
    <rdf:RDF>
      <cc:Work
         rdf:about="">
        <dc:format>image/svg+xml</dc:format>
        <dc:type
           rdf:resource="http://purl.org/dc/dcmitype/StillImage" />
        <dc:title></dc:title>
      </cc:Work>
    </rdf:RDF>
  </metadata>
  <defs
     id="defs8" />
  <sodipodi:namedview
     pagecolor="#ffffff"
     bordercolor="#666666"
     borderopacity="1"
     objecttolerance="10"
     gridtolerance="10"
     guidetolerance="10"
     inkscape:pageopacity="0"
     inkscape:pageshadow="2"
     inkscape:window-width="1112"
     inkscape:window-height="480"
     id="namedview6"
     showgrid="false"
     inkscape:zoom="9.8333333"
     inkscape:cx="12"
     inkscape:cy="12"
     inkscape:window-x="0"
     inkscape:window-y="25"
     inkscape:window-maximized="0"
     inkscape:current-layer="svg4" />
  <path
     style="isolation:auto;mix-blend-mode:normal;fill:#808080"
     d="m 9.9335938,4.3554688 a 8,8 0 0 0 -0.00586,0.00195 8,8 0 0 0 -0.75,0.2734375 A 8,8 0 0 0 8.4570312,4.9785156 8,8 0 0 0 7.7753906,5.3964844 8,8 0 0 0 7.1386719,5.8789062 8,8 0 0 0 6.5527344,6.4238281 8,8 0 0 0 6.0253906,7.0253906 8,8 0 0 0 5.5605469,7.6757812 8,8 0 0 0 5.1621094,8.3691406 8,8 0 0 0 4.8359375,9.0996094 8,8 0 0 0 4.5820312,9.8574219 8,8 0 0 0 4.4082031,10.638672 8,8 0 0 0 4.3105469,11.431641 8,8 0 0 0 4.2929688,12.230469 8,8 0 0 0 4.3574219,13.029297 8,8 0 0 0 4.5,13.816406 a 8,8 0 0 0 0.21875,0.767578 8,8 0 0 0 0.296875,0.744141 8,8 0 0 0 0.3691406,0.708984 8,8 0 0 0 0.4375,0.669922 8,8 0 0 0 0.1503906,0.185547 3.556,3.556 0 0 1 2.5527344,-2.55664 5.333,5.333 0 0 1 -0.00391,-0.115235 A 5.333,5.333 0 0 1 8.9980469,12.03125 8.03,8.243 0 0 1 8.7597656,11.289062 8.03,8.243 0 0 1 8.5839844,10.486328 8.03,8.243 0 0 1 8.4863281,9.6679688 8.03,8.243 0 0 1 8.4667969,9.0859375 8.03,8.243 0 0 1 8.5078125,8.2617188 8.03,8.243 0 0 1 8.6289062,7.4472656 8.03,8.243 0 0 1 8.828125,6.6503906 8.03,8.243 0 0 1 9.1054688,5.875 8.03,8.243 0 0 1 9.4550781,5.1347656 8.03,8.243 0 0 1 9.875,4.4335938 8.03,8.243 0 0 1 9.9335938,4.3554688 Z m 3.9218752,5.5429687 a 4.342,4.342 0 0 0 -4.3437502,4.3417965 4.342,4.342 0 0 0 0.09375,0.875 2.605,2.605 0 0 0 -0.09375,-0.0059 2.605,2.605 0 0 0 -2.6054688,2.605469 2.605,2.605 0 0 0 2.6054688,2.605468 H 17.328125 A 3.474,3.474 0 0 0 20.802734,16.845703 3.474,3.474 0 0 0 18.126953,13.46875 4.342,4.342 0 0 0 13.855469,9.8984375 Z"
     id="path814"
     inkscape:connector-curvature="0" />
</svg>

<?xml version="1.0" encoding="UTF-8" standalone="no"?>
<svg
   xmlns:dc="http://purl.org/dc/elements/1.1/"
   xmlns:cc="http://creativecommons.org/ns#"
   xmlns:rdf="http://www.w3.org/1999/02/22-rdf-syntax-ns#"
   xmlns:svg="http://www.w3.org/2000/svg"
   xmlns="http://www.w3.org/2000/svg"
   xmlns:sodipodi="http://sodipodi.sourceforge.net/DTD/sodipodi-0.dtd"
   xmlns:inkscape="http://www.inkscape.org/namespaces/inkscape"
   width="24"
   height="24"
   version="1.1"
   id="svg4"
   sodipodi:docname="weather-clouds-night-symbolic.svg"
   inkscape:version="0.92.4 (5da689c313, 2019-01-14)">
  <metadata
     id="metadata10">
    <rdf:RDF>
      <cc:Work
         rdf:about="">
        <dc:format>image/svg+xml</dc:format>
        <dc:type
           rdf:resource="http://purl.org/dc/dcmitype/StillImage" />
        <dc:title></dc:title>
      </cc:Work>
    </rdf:RDF>
  </metadata>
  <defs
     id="defs8" />
  <sodipodi:namedview
     pagecolor="#ffffff"
     bordercolor="#666666"
     borderopacity="1"
     objecttolerance="10"
     gridtolerance="10"
     guidetolerance="10"
     inkscape:pageopacity="0"
     inkscape:pageshadow="2"
     inkscape:window-width="1085"
     inkscape:window-height="480"
     id="namedview6"
     showgrid="false"
     inkscape:zoom="11.833333"
     inkscape:cx="12"
     inkscape:cy="12"
     inkscape:window-x="0"
     inkscape:window-y="25"
     inkscape:window-maximized="0"
     inkscape:current-layer="svg4" />
  <path
     style="isolation:auto;mix-blend-mode:normal;fill:#808080"
     d="M 9.9335938 4.3554688 A 8 8 0 0 0 9.9277344 4.3574219 A 8 8 0 0 0 9.1777344 4.6308594 A 8 8 0 0 0 8.4570312 4.9785156 A 8 8 0 0 0 7.7753906 5.3964844 A 8 8 0 0 0 7.1386719 5.8789062 A 8 8 0 0 0 6.5527344 6.4238281 A 8 8 0 0 0 6.0253906 7.0253906 A 8 8 0 0 0 5.5605469 7.6757812 A 8 8 0 0 0 5.1621094 8.3691406 A 8 8 0 0 0 4.8359375 9.0996094 A 8 8 0 0 0 4.5820312 9.8574219 A 8 8 0 0 0 4.4082031 10.638672 A 8 8 0 0 0 4.3105469 11.431641 A 8 8 0 0 0 4.2929688 12.230469 A 8 8 0 0 0 4.3574219 13.029297 A 8 8 0 0 0 4.5 13.816406 A 8 8 0 0 0 4.71875 14.583984 A 8 8 0 0 0 5.015625 15.328125 A 8 8 0 0 0 5.3847656 16.037109 A 8 8 0 0 0 5.8222656 16.707031 A 8 8 0 0 0 5.9726562 16.892578 A 3.556 3.556 0 0 1 8.5253906 14.335938 A 5.333 5.333 0 0 1 8.5214844 14.220703 A 5.333 5.333 0 0 1 8.9980469 12.03125 A 8.03 8.243 0 0 1 8.7597656 11.289062 A 8.03 8.243 0 0 1 8.5839844 10.486328 A 8.03 8.243 0 0 1 8.4863281 9.6679688 A 8.03 8.243 0 0 1 8.4667969 9.0859375 A 8.03 8.243 0 0 1 8.5078125 8.2617188 A 8.03 8.243 0 0 1 8.6289062 7.4472656 A 8.03 8.243 0 0 1 8.828125 6.6503906 A 8.03 8.243 0 0 1 9.1054688 5.875 A 8.03 8.243 0 0 1 9.4550781 5.1347656 A 8.03 8.243 0 0 1 9.875 4.4335938 A 8.03 8.243 0 0 1 9.9335938 4.3554688 z M 13.855469 9.8984375 A 4.342 4.342 0 0 0 9.5117188 14.240234 A 4.342 4.342 0 0 0 9.6054688 15.115234 A 2.605 2.605 0 0 0 9.5117188 15.109375 A 2.605 2.605 0 0 0 6.90625 17.714844 A 2.605 2.605 0 0 0 9.5117188 20.320312 L 17.328125 20.320312 A 3.474 3.474 0 0 0 20.802734 16.845703 A 3.474 3.474 0 0 0 18.126953 13.46875 A 4.342 4.342 0 0 0 13.855469 9.8984375 z "
     id="path814" />
</svg>
